X:771
T:Fort McHenry Quickstep
S:Bruce & Emmett's Drummers and Fifers Guide (1862), p. 77
M:2/4
L:1/16
Q:1/4=100
K:D
%%MIDI program 72
%%MIDI transpose 8
%%MIDI ratio 3 1
AG|FGEF D2de|fedc BcdB|A2dF GFED|CEDF E2AG|FGEF D2de|
fedc BcdB|A2dF GFED|A,DCE D2::ed|cABc dfed|cABc d3F|~G2BA GFED|
CEDF E2AG|FDGE AGFA|def^g a2fa|gfed cABc|d2f2d2:|

